X: 37852
T: Sord Cholmcille
R: polka
M: 2/4
K: Gmajor
|:GB de/f/|gg f/e/d|DF A>B|cc B/c/B/A/|
GB de/f/|gg f/e/d|D>F A/c/B/A/|GG G2:|
|:BD BD|BB/c/ B/A/G|cE cE|cc/d/ c/B/A/G/|
BD BD|BB/c/ B/A/G/B/|c/B/A/G/ F/G/A/F/|GG G2:|

